src/assets/icons/project.svg

<svg xmlns="http://www.w3.org/2000/svg" viewBox="0 0 24 24"><path d="M15.577 19.744L16.024 18H7.976l.446 1.744A3 3 0 0011.328 22h1.343a2.999 2.999 0 002.906-2.256z"/><circle cx="21" cy="2" r="1"/><circle cx="21" cy="16" r="1"/><circle cx="3" cy="16" r="1"/><circle cx="23" cy="9" r="1"/><path d="M12 1c-1.898 0-3.64.664-5.011 1.769A2.978 2.978 0 005 2a3 3 0 00-3 3 2.99 2.99 0 002.093 2.845A7.998 7.998 0 004 9a7.982 7.982 0 003.333 6.489L7.976 18h8.048l.643-2.511A7.982 7.982 0 0020 9a8 8 0 00-8-8z" opacity=".35"/><path d="M9 5c0-.38.171-.719.44-.946a.738.738 0 00.234-.819 4.982 4.982 0 00-.811-1.402.704.704 0 00-.795-.215 1.24 1.24 0 01-1.673-.97.697.697 0 00-.572-.578 4.845 4.845 0 00-1.646 0 .697.697 0 00-.572.578 1.235 1.235 0 01-1.673.97.704.704 0 00-.795.215 4.982 4.982 0 00-.811 1.402.739.739 0 00.234.819 1.234 1.234 0 010 1.892.739.739 0 00-.234.819c.194.513.469.986.81 1.402a.707.707 0 00.796.215 1.24 1.24 0 011.673.97.697.697 0 00.572.578 4.845 4.845 0 001.646 0 .699.699 0 00.571-.579 1.24 1.24 0 011.674-.969.706.706 0 00.796-.215 4.97 4.97 0 00.81-1.402.739.739 0 00-.234-.819A1.234 1.234 0 019 5zM5 7a2 2 0 110-4 2 2 0 010 4z"/></svg>

<svg xmlns="http://www.w3.org/2000/svg" viewBox="0 0 24 24">
  <path
    d="M15.577,19.744L16.024,18H7.976l0.446,1.744C8.762,21.071,9.958,22,11.328,22h1.343C14.042,22,15.238,21.071,15.577,19.744z"
    fill="#2E6B55" />
  <circle cx="21" cy="2" r="1" fill="#2E6B55" />
  <circle cx="21" cy="16" r="1" fill="#2E6B55" />
  <circle cx="3" cy="16" r="1" fill="#2E6B55" />
  <circle cx="23" cy="9" r="1" fill="#2E6B55" />
  <path
    d="M12,1c-1.898,0-3.64,0.664-5.011,1.769C6.458,2.296,5.767,2,5,2C3.343,2,2,3.343,2,5c0,1.338,0.882,2.459,2.093,2.845C4.038,8.223,4,8.607,4,9c0,2.675,1.317,5.036,3.333,6.489L7.976,18h8.048l0.643-2.511C18.683,14.036,20,11.675,20,9C20,4.582,16.418,1,12,1z"
    opacity=".35" fill="#2E6B55" />
  <path
    d="M9,5c0-0.38,0.171-0.719,0.44-0.946c0.239-0.203,0.344-0.525,0.234-0.819C9.48,2.722,9.205,2.249,8.863,1.833C8.672,1.599,8.349,1.509,8.068,1.618C7.729,1.748,7.339,1.731,7,1.536C6.66,1.34,6.45,1.008,6.395,0.648C6.35,0.354,6.117,0.119,5.823,0.07C5.556,0.024,5.281,0,5,0S4.444,0.024,4.177,0.07C3.883,0.119,3.65,0.354,3.605,0.648C3.55,1.008,3.34,1.34,3,1.536C2.661,1.731,2.271,1.748,1.932,1.618C1.651,1.509,1.328,1.599,1.137,1.833C0.795,2.249,0.52,2.722,0.326,3.235C0.216,3.528,0.321,3.851,0.56,4.054C0.829,4.281,1,4.62,1,5c0,0.38-0.171,0.719-0.44,0.946C0.321,6.149,0.216,6.472,0.326,6.765c0.194,0.513,0.469,0.986,0.81,1.402c0.192,0.234,0.514,0.323,0.796,0.215C2.271,8.252,2.661,8.269,3,8.464C3.34,8.66,3.55,8.992,3.605,9.352C3.65,9.646,3.883,9.881,4.177,9.93C4.444,9.976,4.719,10,5,10s0.556-0.024,0.823-0.07c0.293-0.05,0.526-0.285,0.571-0.579C6.45,8.992,6.66,8.66,7,8.464c0.339-0.196,0.729-0.212,1.068-0.082c0.282,0.109,0.604,0.019,0.796-0.215c0.342-0.417,0.617-0.889,0.81-1.402C9.784,6.472,9.679,6.149,9.44,5.946C9.171,5.719,9,5.38,9,5z M5,7C3.895,7,3,6.104,3,5s0.895-2,2-2s2,0.896,2,2S6.105,7,5,7z"
    fill="#2E6B55" />
</svg>
